icons/codemeta.svg

<!--
  - The MIT License (MIT)
  -
  - Copyright (c) 2015-2024 Elior "Mallowigi" Boukhobza
  -
  - Permission is hereby granted, free of charge, to any person obtaining a copy
  - of this software and associated documentation files (the "Software"), to deal
  - in the Software without restriction, including without limitation the rights
  - to use, copy, modify, merge, publish, distribute, sublicense, and/or sell
  - copies of the Software, and to permit persons to whom the Software is
  - furnished to do so, subject to the following conditions:
  -
  - The above copyright notice and this permission notice shall be included in all
  - copies or substantial portions of the Software.
  -
  - THE SOFTWARE IS PROVIDED "AS IS", WITHOUT WARRANTY OF ANY KIND, EXPRESS OR
  - IMPLIED, INCLUDING BUT NOT LIMITED TO THE WARRANTIES OF MERCHANTABILITY,
  - FITNESS FOR A PARTICULAR PURPOSE AND NONINFRINGEMENT. IN NO EVENT SHALL THE
  - AUTHORS OR COPYRIGHT HOLDERS BE LIABLE FOR ANY CLAIM, DAMAGES OR OTHER
  - LIABILITY, WHETHER IN AN ACTION OF CONTRACT, TORT OR OTHERWISE, ARISING FROM,
  - OUT OF OR IN CONNECTION WITH THE SOFTWARE OR THE USE OR OTHER DEALINGS IN THE
  - SOFTWARE.
  -
  -->

<svg version="1.1" xmlns="http://www.w3.org/2000/svg" viewBox="0 0 436 512" width="16px" height="16px">
  <path fill="#7986CB" data-iconColor="Codemeta"
        d="M425.686615,115.7986832L317.0040588,9.0567951C311.0567932,3.2165315,303.1906738,0,294.8549805,0H31.6110554C14.1805277,0,0,14.1805277,0,31.6110554v448.7773743C0,497.819458,14.1805277,512,31.6110554,512H403.536499C420.9675598,512,436,497.819458,436,480.3884277v-342.036499C436,129.9259644,431.6997986,121.7058792,425.686615,115.7986832z M397.7606506,146.8519287l-105.054718-0.0000458l-0.000061-109.4644623L397.7606506,146.8519287z M37.3874245,474.6125793V37.3874245h217.9310303v108.1049805c0,21.365097,17.3823547,38.7469482,38.747467,38.7469482h103.6947327v290.37323H37.3874245z M169.9685669,234.2763672l-55.1830673,75.2378235l54.5182571,77.337738l-30.5578156,21.5415955l-70.0091248-99.3113708l71.0836639-96.9173431L169.9685669,234.2763672z M297.5831604,212.0476685l72.4067078,97.1217041l-72.4523315,99.4604492l-30.2190857-22.0141907l56.2292175-77.1886597l-55.9381409-75.0334625L297.5831604,212.0476685z M219.9898529,179.5431061l36.8864288,6.1004028l-41.8022461,252.7763824l-36.8869171-6.0993958L219.9898529,179.5431061z"/>
</svg>

<svg xmlns="http://www.w3.org/2000/svg" viewBox="0 0 436 512"><path fill="#7986cb" d="M425.687 115.799 317.004 9.057C311.057 3.217 303.191 0 294.855 0H31.611C14.181 0 0 14.18 0 31.611v448.777C0 497.82 14.18 512 31.611 512h371.925C420.968 512 436 497.82 436 480.388V138.352c0-8.426-4.3-16.646-10.313-22.553m-27.926 31.053H292.706V37.387zM37.387 474.612V37.388h217.931v108.105c0 21.366 17.383 38.747 38.748 38.747H397.76v290.374zM169.97 234.277l-55.184 75.238 54.519 77.338-30.558 21.542-70.01-99.312 71.084-96.917zm127.614-22.228 72.407 97.121-72.452 99.46-30.22-22.013 56.23-77.189-55.938-75.033zm-77.593-32.505 36.886 6.1-41.802 252.777-36.887-6.1z" data-iconColor="Codemeta"/></svg>
